storage/app/icons/tabler/filled/heart-broken.svg

<!--
unicode: "1016a"
version: "3.33"
-->
<svg
  xmlns="http://www.w3.org/2000/svg"
  width="24"
  height="24"
  viewBox="0 0 24 24"
  fill="currentColor"
>
  <path d="M11.001 3.8l-.001 1.963l-1.894 3.79l-.047 .11a1 1 0 0 0 .341 1.137l3.332 2.499l-1.626 3.254a1 1 0 0 0 -.106 .447v3.417l-7.197 -7.127a6 6 0 0 1 6.956 -9.621zm5.77 -.739l.246 .037a6 6 0 0 1 3.184 10.193l-.044 .037l-7.157 7.088v-3.181l1.894 -3.788l.047 -.11a1 1 0 0 0 -.341 -1.137l-3.333 -2.5l1.627 -3.253a1 1 0 0 0 .106 -.447v-2.187a6 6 0 0 1 3.77 -.752" />
</svg>

<svg xmlns="http://www.w3.org/2000/svg" width="24" height="24" fill="currentColor" viewBox="0 0 24 24"><path d="M11.001 3.8 11 5.763l-1.894 3.79-.047.11A1 1 0 0 0 9.4 10.8l3.332 2.499-1.626 3.254A1 1 0 0 0 11 17v3.417L3.803 13.29a6 6 0 0 1 6.956-9.621zm5.77-.739.246.037a6 6 0 0 1 3.184 10.193l-.044.037L13 20.416v-3.181l1.894-3.788.047-.11A1 1 0 0 0 14.6 12.2l-3.333-2.5 1.627-3.253A1 1 0 0 0 13 6V3.813a6 6 0 0 1 3.77-.752"/></svg>
